src/status/16/audio-volume-medium-panel.svg

<?xml version="1.0" encoding="UTF-8" standalone="no"?>
<svg
   width="16"
   height="16"
   enable-background="new"
   version="1.1"
   id="svg5"
   sodipodi:docname="audio-volume-medium-panel.svg"
   inkscape:version="1.4 (e7c3feb100, 2024-10-09)"
   xmlns:inkscape="http://www.inkscape.org/namespaces/inkscape"
   xmlns:sodipodi="http://sodipodi.sourceforge.net/DTD/sodipodi-0.dtd"
   xmlns="http://www.w3.org/2000/svg"
   xmlns:svg="http://www.w3.org/2000/svg">
  <defs
     id="defs5" />
  <sodipodi:namedview
     id="namedview5"
     pagecolor="#c8c8c8"
     bordercolor="#000000"
     borderopacity="0.25"
     inkscape:showpageshadow="2"
     inkscape:pageopacity="0.0"
     inkscape:pagecheckerboard="0"
     inkscape:deskcolor="#d1d1d1"
     inkscape:zoom="16.528621"
     inkscape:cx="-3.9325725"
     inkscape:cy="7.5021383"
     inkscape:window-width="2560"
     inkscape:window-height="1411"
     inkscape:window-x="0"
     inkscape:window-y="0"
     inkscape:window-maximized="1"
     inkscape:current-layer="svg5" />
  <g
     id="g5-3"
     transform="translate(0.04553)">
    <path
       class="ColorScheme-Text" fill="currentColor"
       d="M 13.257204 2.7304688 C 12.861588 2.74236 12.614937 3.2641013 13.001345 3.6445312 C 14.216045 4.7771313 14.906948 6.3626375 14.909548 8.0234375 C 14.907548 9.6888375 14.213592 11.278509 12.993533 12.412109 C 12.525183 12.858339 13.16699 13.558805 13.67322 13.140625 C 15.09622 11.819025 15.906248 9.9655375 15.909548 8.0234375 C 15.907548 6.0851375 15.102149 4.2344094 13.684939 2.9121094 C 13.538086 2.7783894 13.389077 2.726505 13.257204 2.7304688 z M 10.018923 4.1992188 C 9.6428947 4.2156039 9.374275 4.7128731 9.7279075 5.0957031 C 10.538358 5.8507131 10.999445 6.908025 11.001345 8.015625 C 11.000345 9.125925 10.537341 10.185706 9.7240013 10.941406 C 9.2514113 11.371336 9.8635688 12.093605 10.403689 11.671875 C 11.420489 10.727625 11.999145 9.403225 12.001345 8.015625 C 11.999345 6.631225 11.423921 5.3094344 10.411501 4.3652344 C 10.281264 4.2418119 10.144266 4.193757 10.018923 4.1992188 z "
       id="path1"
       style="fill:#ffffff;fill-opacity:1;opacity:0.3" />
    <path
       class="ColorScheme-Text"
       fill="currentColor"
       d="M 7.38672,1.49968 C 7.19958,1.48818 6.82681,1.6393 6.69531,1.75749 L 4.0918,4.99968 H 1.63672 C 0.73018,4.99968 0,5.75496 0,6.74968 v 2.49985 c 0,0.99472 0.73018,1.75 1.63672,1.75 H 4.0918 l 2.78515,3.33398 c 0.13148,0.11821 0.32268,0.17756 0.50977,0.16602 C 7.69852,14.48023 8,14.26203 8,13.78468 V 2.21452 C 8,1.73717 7.69863,1.519 7.38672,1.49968 Z M 7,2.95206 v 0.22461 9.58018 0.27344 L 4.51337,9.99953 H 1.83398 c -0.0571,0 -0.11419,-0.007 -0.16796,-0.0176 -6.3e-4,-1.3e-4 -0.001,1.3e-4 -0.002,0 -0.0537,-0.0109 -0.10491,-0.0262 -0.15429,-0.0469 -5.3e-4,-2.3e-4 -0.001,2.2e-4 -0.002,0 C 1.45783,9.91403 1.41143,9.88683 1.36711,9.85693 1.32281,9.82703 1.28171,9.79303 1.24406,9.75537 1.20636,9.71767 1.17236,9.67667 1.1425,9.63232 1.1126,9.58802 1.0854,9.54162 1.0644,9.4917 c -2.3e-4,-5.6e-4 2.4e-4,-10e-4 0,-0.002 C 1.0437,9.4403 1.0285,9.38915 1.0175,9.33541 c -1.3e-4,-6.2e-4 1.2e-4,-10e-4 0,-0.002 -0.006,-0.0272 -0.0108,-0.0539 -0.0137,-0.082 -0.003,-0.0281 -0.004,-0.0571 -0.004,-0.0859 V 6.83363 c 0,-0.057 0.007,-0.11419 0.0176,-0.16797 1.2e-4,-6.2e-4 -1.3e-4,-0.001 0,-0.002 0.0109,-0.0537 0.0262,-0.10491 0.0469,-0.1543 2.2e-4,-5.2e-4 -2.2e-4,-0.001 0,-0.002 0.021,-0.0499 0.0482,-0.0963 0.0781,-0.14062 0.0299,-0.0443 0.0639,-0.0854 0.10156,-0.12305 0.0377,-0.0377 0.0787,-0.0717 0.12305,-0.10156 0.0443,-0.0299 0.0907,-0.0571 0.14062,-0.0781 5.6e-4,-2.3e-4 10e-4,2.3e-4 0.002,0 0.0494,-0.0207 0.10055,-0.0359 0.15429,-0.0469 0.0543,-0.0111 0.11222,-0.0176 0.16992,-0.0176 h 2.67939 z"
       sodipodi:nodetypes="cccsssscccssccccccscccccccccsccssscscccccccscc"
       id="path2"
       style="fill:#ffffff;fill-opacity:1;opacity:0.3" />
  </g>
</svg>

<?xml version="1.0" encoding="UTF-8" standalone="no"?>
<svg
   width="16"
   height="16"
   enable-background="new"
   version="1.1"
   id="svg5"
   sodipodi:docname="audio-volume-medium-panel.svg"
   inkscape:version="1.3.2 (091e20ef0f, 2023-11-25, custom)"
   xmlns:inkscape="http://www.inkscape.org/namespaces/inkscape"
   xmlns:sodipodi="http://sodipodi.sourceforge.net/DTD/sodipodi-0.dtd"
   xmlns="http://www.w3.org/2000/svg"
   xmlns:svg="http://www.w3.org/2000/svg">
  <defs
     id="defs5" />
  <sodipodi:namedview
     id="namedview5"
     pagecolor="#c8c8c8"
     bordercolor="#000000"
     borderopacity="0.25"
     inkscape:showpageshadow="2"
     inkscape:pageopacity="0.0"
     inkscape:pagecheckerboard="0"
     inkscape:deskcolor="#d1d1d1"
     inkscape:zoom="16.528621"
     inkscape:cx="-3.9023219"
     inkscape:cy="7.5021383"
     inkscape:window-width="1920"
     inkscape:window-height="955"
     inkscape:window-x="0"
     inkscape:window-y="34"
     inkscape:window-maximized="1"
     inkscape:current-layer="svg5" />
  <g
     id="g5-3"
     transform="translate(0.04553)">
    <path
       id="path1277"
       d="m 13.68434,2.91298 c -0.58741,-0.53488 -1.1988,0.22518 -0.68359,0.73242 1.2147,1.1326 1.9056,2.7181 1.9082,4.3789 -0.002,1.6654 -0.69594,3.2551 -1.916,4.3887 -0.46835,0.44623 0.17346,1.1467 0.67969,0.72852 1.423,-1.3216 2.233,-3.1751 2.2363,-5.1172 -0.002,-1.9383 -0.80739,-3.789 -2.2246,-5.1113 z"
       style="color:#363636;opacity:0.3;fill:#fefefe;fill-opacity:1" />
    <path
       id="path1279"
       d="M 10.41085,4.36602 C 9.8899,3.87233 9.25575,4.58605 9.72726,5.09649 c 0.81045,0.75501 1.2715,1.8123 1.2734,2.9199 -10e-4,1.1103 -0.46396,2.1701 -1.2773,2.9258 -0.47259,0.42993 0.13957,1.1522 0.67969,0.73047 1.0168,-0.94425 1.5955,-2.2686 1.5977,-3.6562 -0.002,-1.3844 -0.57738,-2.7062 -1.5898,-3.6504 z"
       style="color:#363636;fill:#fefefe;fill-opacity:1;opacity:0.3" />
    <path
       id="path2670"
       style="color:#363636;fill:#fefefe;fill-opacity:1;stroke:#fefefe;stroke-width:0;stroke-miterlimit:4;stroke-dasharray:none;stroke-opacity:1"
       d="M 7.38672,1.49968 C 7.19958,1.48818 6.82681,1.6393 6.69531,1.75749 L 4.0918,4.99968 H 1.63672 C 0.73018,4.99968 0,5.75496 0,6.74968 v 2.49985 c 0,0.99472 0.73018,1.75 1.63672,1.75 H 4.0918 l 2.78515,3.33398 c 0.13148,0.11821 0.32268,0.17756 0.50977,0.16602 C 7.69852,14.48023 8,14.26203 8,13.78468 V 2.21452 C 8,1.73717 7.69863,1.519 7.38672,1.49968 Z M 7,2.95206 v 0.22461 9.58018 0.27344 L 4.51337,9.99953 H 1.83398 c -0.0571,0 -0.11419,-0.007 -0.16796,-0.0176 -6.3e-4,-1.3e-4 -0.001,1.3e-4 -0.002,0 -0.0537,-0.0109 -0.10491,-0.0262 -0.15429,-0.0469 -5.3e-4,-2.3e-4 -0.001,2.2e-4 -0.002,0 C 1.45783,9.91403 1.41143,9.88683 1.36711,9.85693 1.32281,9.82703 1.28171,9.79303 1.24406,9.75537 1.20636,9.71767 1.17236,9.67667 1.1425,9.63232 1.1126,9.58802 1.0854,9.54162 1.0644,9.4917 c -2.3e-4,-5.6e-4 2.4e-4,-10e-4 0,-0.002 C 1.0437,9.4403 1.0285,9.38915 1.0175,9.33541 c -1.3e-4,-6.2e-4 1.2e-4,-10e-4 0,-0.002 -0.006,-0.0272 -0.0108,-0.0539 -0.0137,-0.082 -0.003,-0.0281 -0.004,-0.0571 -0.004,-0.0859 V 6.83363 c 0,-0.057 0.007,-0.11419 0.0176,-0.16797 1.2e-4,-6.2e-4 -1.3e-4,-0.001 0,-0.002 0.0109,-0.0537 0.0262,-0.10491 0.0469,-0.1543 2.2e-4,-5.2e-4 -2.2e-4,-0.001 0,-0.002 0.021,-0.0499 0.0482,-0.0963 0.0781,-0.14062 0.0299,-0.0443 0.0639,-0.0854 0.10156,-0.12305 0.0377,-0.0377 0.0787,-0.0717 0.12305,-0.10156 0.0443,-0.0299 0.0907,-0.0571 0.14062,-0.0781 5.6e-4,-2.3e-4 10e-4,2.3e-4 0.002,0 0.0494,-0.0207 0.10055,-0.0359 0.15429,-0.0469 0.0543,-0.0111 0.11222,-0.0176 0.16992,-0.0176 h 2.67939 z"
       sodipodi:nodetypes="cccsssscccssccccccscccccccccsccssscscccccccscc" />
  </g>
</svg>
